img/facebook.svg

<svg width="13" height="24" viewBox="0 0 13 24" fill="none" xmlns="http://www.w3.org/2000/svg">
<path d="M10.6266 3.98062H13V0.168814C12.5905 0.116871 11.1823 0 9.54229 0C6.12032 0 3.77619 1.98482 3.77619 5.6328V8.99011H0V13.2514H3.77619V23.9736H8.40597V13.2524H12.0294L12.6046 8.99111H8.40488V6.05534C8.40597 4.82369 8.7656 3.98062 10.6266 3.98062Z" fill="#198C36"/>
</svg>

<svg width="13" height="24" fill="none" xmlns="http://www.w3.org/2000/svg"><path d="M10.627 3.98H13V.17C12.59.117 11.182 0 9.542 0 6.12 0 3.776 1.985 3.776 5.633V8.99H0v4.261h3.776v10.723h4.63V13.252h3.623l.576-4.26h-4.2V6.054c.001-1.231.36-2.074 2.222-2.074Z" fill="#198C36"/></svg>
